icons/toolbox.svg

<?xml version="1.0" encoding="UTF-8"?><svg id="uuid-3dff6b19-5e66-4730-9fe9-a05dcf0fff34" xmlns="http://www.w3.org/2000/svg" viewBox="0 0 50 50"><path d="M13.75,9.67h22v4.4h1v-4.9c0-.28-.22-.5-.5-.5H13.25c-.28,0-.5,.22-.5,.5v4.9h1v-4.4Z"/><path d="M48.28,14.07H1.22c-.28,0-.5,.22-.5,.5v25.76c0,.28,.22,.5,.5,.5H48.28c.28,0,.5-.22,.5-.5V14.57c0-.28-.22-.5-.5-.5Zm-.5,25.76H1.72v-14.5h6.38v3.17c0,.28,.22,.5,.5,.5h4.65c.28,0,.5-.22,.5-.5v-3.17h5.12v.95c0,.28,.22,.5,.5,.5h10.76c.28,0,.5-.22,.5-.5v-.95h5.12v3.17c0,.28,.22,.5,.5,.5h4.65c.28,0,.5-.22,.5-.5v-3.17h6.38v14.5ZM9.1,28v-4.79h3.65v4.79h-3.65Zm10.77-2.22v-1.89h9.76v1.89h-9.76Zm16.88,2.22v-4.79h3.65v4.79h-3.65Zm11.03-3.67h-6.38v-1.62c0-.28-.22-.5-.5-.5h-4.65c-.28,0-.5,.22-.5,.5v1.62h-5.12v-.95c0-.28-.22-.5-.5-.5h-10.76c-.28,0-.5,.22-.5,.5v.95h-5.12v-1.62c0-.28-.22-.5-.5-.5h-4.65c-.28,0-.5,.22-.5,.5v1.62H1.72V15.07H47.78v9.26Z"/></svg>

<svg id="ICONS" xmlns="http://www.w3.org/2000/svg" viewBox="0 0 50 50"><path d="M13.75,9.67h22v4.4h1V9.17a.5.5,0,0,0-.5-.5h-23a.5.5,0,0,0-.5.5v4.9h1Z"/><path d="M48.28,14.07H1.22a.5.5,0,0,0-.5.5V40.33a.51.51,0,0,0,.5.5H48.28a.51.51,0,0,0,.5-.5V14.57A.5.5,0,0,0,48.28,14.07Zm-.5,25.76H1.72V25.33H8.1V28.5a.51.51,0,0,0,.5.5h4.65a.5.5,0,0,0,.5-.5V25.33h5.12v1a.5.5,0,0,0,.5.5H30.13a.5.5,0,0,0,.5-.5v-1h5.12V28.5a.5.5,0,0,0,.5.5H40.9a.51.51,0,0,0,.5-.5V25.33h6.38ZM9.1,28V23.21h3.65V28Zm10.77-2.22v-1.9h9.76v1.9ZM36.75,28V23.21H40.4V28Zm11-3.67H41.4V22.71a.5.5,0,0,0-.5-.5H36.25a.5.5,0,0,0-.5.5v1.62H30.63v-.95a.5.5,0,0,0-.5-.5H19.37a.5.5,0,0,0-.5.5v.95H13.75V22.71a.5.5,0,0,0-.5-.5H8.6a.5.5,0,0,0-.5.5v1.62H1.72V15.07H47.78Z"/></svg>
